!!!!SEGMENT: pl-kk--kk-i-88--004-006_golabek-jakub--missa-4ta-osanna.krn
!!!cenid: 17xx:2595
!!!COM: Gołąbek, Jakub
!!!COM-rismID: pe30008748
!!!CDT: 1739-1789/03/30
!!!CNT: Polish
!!!OPR: Missa 4ta
!!!OTL: Osanna
!!!OMV: 006
!!!PDT:
!!!AGN: Sacred; Mass
!!!YEC: Copyright 2022 Narodowy Instytut Fryderyka Chopina (https://polishscores.org)
!!!YEM: License CC-BY-4.0 (https://creativecommons.org/licenses/by/4.0)
!!!SMS-siglum: PL-Kk
!!!SMS-shelfmark: Kk.I.88
!!!SMS-variant:
!!!SMS-altvar:
!!!SMS-shelfwork: 004-006 M
!!!NIFC-rismSourceID: 1001164072
!!!NIFC-rismChildID: 1001164083
!!!NIFC-islandoraID:
!!!URL-pdf-islandora: https://repozytorium.nifc.pl/islandora/object/pl-kk%3A3086/datastream/PDF/view
!!!URL-scan: https://polish.musicsources.pl/pl/lokalizacje/galeria/rekopisy/6148-missa/4 @EN{Scan on Polish Music Sources Website} @PL{Skany w portalu Dziedzictwo Muzyki Polskiej w otwartym dostępie}
!!!IIIF:
!!!ONB-nifc: UWAGA: C - f. 8r-9v; A - f. 16r-17v; T - f. 24r-25v; B - f. 37r-39v; B rip - f. 37r-39v. Proszę uwzględniać B rip. Części Mszy: 1. Kyrie, 2. Christe, 3. Et in terra, 4. Sanctus, 5, Benedictus, 6. Osanna, 7. Agnus Dei.
!!!AIN: 1 alto 2 bass 1 soprn 1 tenor
!!!key:
**kern	**text	**kern	**kern	**text	**kern	**text	**kern	**text
*part5	*part5	*part4	*part3	*part3	*part2	*part2	*part1	*part1
*staff5	*staff5	*staff4	*staff3	*staff3	*staff2	*staff2	*staff1	*staff1
*I"Baſso	*	*I"Baſso	*I"Tenore	*	*I"Alto	*	*I"Canto	*
*I'B rip	*	*I'B	*I'T	*	*I'A	*	*I'S	*
*Ibass	*	*Ibass	*Itenor	*	*Ialto	*	*Isoprn	*
*ICvox	*	*ICvox	*ICvox	*	*ICvox	*	*ICvox	*
*clefF4	*	*clefF4	*clefC4	*	*clefC3	*	*clefC1	*
*k[b-e-]	*	*k[b-e-]	*k[b-e-]	*	*k[b-e-]	*	*k[b-e-]	*
*B-:	*	*B-:	*B-:	*	*B-:	*	*B-:	*
*M3/2	*	*M3/2	*M3/2	*	*M3/2	*	*M3/2	*
*2\right	*	*	*	*	*	*	*	*
=1	=1	=1	=1	=1	=1	=1	=1	=1
!	!	!LO:TX:t=P:problem:brak Osanny w źródle	!	!	!	!	!	!
*	*	*	*2\right	*	*2\right	*	*2\right	*
2G\	O-	1.ryy	2d\	O-	2g\	O-	2b-\	O-
4G\	-san-	.	2G/	-san-	2d\	-san-	2b-\	-san-
4D\	.	.	.	.	.	.	.	.
4BB-/	-na	.	4G/	-na	4d\	-na	4b-\	-na
4GG/	O-	.	4G/	O-	4d\	O-	4b-\	O-
=2	=2	=2	=2	=2	=2	=2	=2	=2
1D	-san-	1.ryy	1d	-san-	1f#X	-san-	1a	-san-
2D\	-na	.	2d\	-na	2f#\	-(n)a	2a\	-na
=3	=3	=3	=3	=3	=3	=3	=3	=3
!	!	!	!	!	!LO:SIC:v:s=2f#	!	!	!
2D\	in	1.ryy	2A/	in	2f\	in	2cc\	in
!	!	!	!	!	!LO:SIC:v:s=4f#	!	!	!
4D\	.	.	4A/	.	4f\	.	4cc\	.
!LO:SIC:v:s=4E	!	!	!	!	!	!	!	!
4E-\	.	.	4G/	.	4g\	.	4b-\	.
4F#X\	ex-	.	4F#X/	ex-	4a\	ex-	4a\	ex-
!	!	!	!	!	!LO:SIC:v:s=4f#	!	!	!
4D\	.	.	4A/	.	4f\	.	4cc\	.
=4	=4	=4	=4	=4	=4	=4	=4	=4
2G\	-cel-	1.ryy	2d\	-cel-	2g\	-cel-	2b-\	-cel-
2D\	-sis	.	2d\	-sis	2f#X\	-sis	2a\	-sis
2r	.	.	2r	.	2r	.	2r	.
!LO:LB:g=original	!	!	!	!	!	!	!	!
=5	=5	=5	=5	=5	=5	=5	=5	=5
4A\	O-	1.ryy	4c\	O-	1.f#X	O-	1.dd	O-
4G\	.	.	4B-\	.	.	.	.	.
4F#\	.	.	4A\	.	.	.	.	.
!LO:SIC:v:s=4E	!	!	!	!	!	!	!	!
4E-\	.	.	4G\	.	.	.	.	.
4D\	.	.	4F#X/	.	.	.	.	.
4F#\	.	.	4A/	.	.	.	.	.
=6	=6	=6	=6	=6	=6	=6	=6	=6
2G\	-san-	1.ryy	2B-\	-san-	2g\	-san-	2dd\	-san-
!	!	!	!	!	!LO:SIC:v:s=2f#	!	!	!
2A\	-na	.	2c\	-na	2f\	-na	2cc\	-na
2B-\	in	.	2d\	in	2g\	in	2b-\	in
!	!	!	!LO:LB:g=original	!	!	!	!LO:LB:g=original	!
=7	=7	=7	=7	=7	=7	=7	=7	=7
2c\	ex-	1.ryy	2e-X\	ex-	2a\	ex-	2cc\	ex-
2d\	-cel-	.	1d	-cel-	2g\	-cel-	2b-\	-cel-
!	!	!	!	!	!LO:SIC:v:s=2f#	!	!	!
2D/	.	.	.	.	2f\	.	2a\	.
!	!	!	!	!	!LO:LB:g=original	!	!	!
=8	=8	=8	=8	=8	=8	=8	=8	=8
1G	-sis,	1.ryy	1d	-sis,	1g	-sis	1b-	-sis
2D\	O-	.	2d\	O-	2f#X\	O-	2a\	O-
=9	=9	=9	=9	=9	=9	=9	=9	=9
4G\	-san-	1.ryy	1.d	-san-	1.g	-san-	4b-\	-san-
4F#X\	.	.	.	.	.	.	4a\	.
4G\	.	.	.	.	.	.	4b-\	.
4A\	.	.	.	.	.	.	4cc\	.
4B-\	.	.	.	.	.	.	4dd\	.
4G\	.	.	.	.	.	.	4b-\	.
=10	=10	=10	=10	=10	=10	=10	=10	=10
4F#X\	.	1.ryy	1d	.	1f#X	.	4a\	.
!LO:SIC:v:s=4E	!	!	!	!	!	!	!	!
4E-\	.	.	.	.	.	.	4g\	.
4D\	.	.	.	.	.	.	4f#X\	.
!LO:SIC:v:s=4E	!	!	!	!	!	!	!	!
4E-\	.	.	.	.	.	.	4g\	.
4F#\	-na	.	2d\	-na	2f#\	-na	4a\	-na
4D\	.	.	.	.	.	.	4f#\	.
!LO:LB:g=original	!	!	!	!	!	!	!	!
=11	=11	=11	=11	=11	=11	=11	=11	=11
4G\	in	1.ryy	1d	in	1g	in	4b-\	in
!LO:SIC:v:s=4F#	!	!	!	!	!	!	!	!
4F\	.	.	.	.	.	.	4a\	.
4G\	.	.	.	.	.	.	4b-\	.
4A\	.	.	.	.	.	.	4cc\	.
4B-\	ex-	.	2d\	ex-	2g\	ex-	4dd\	ex-
4c\	.	.	.	.	.	.	4ee-X\	.
=12	=12	=12	=12	=12	=12	=12	=12	=12
!	!	!	!	!	!LO:SIC:v:s=2f#	!	!	!
2d\	-cel-	1.ryy	2A\	-cel-	2f\	-cel-	2dd\	-cel-
!	!	!	!	!	!LO:SIC:v:s=2f#	!	!	!
2D/	-sis	.	2A\	-sis	2f\	-sis	2dd\	-sis
2r	.	.	2r	.	2r	.	2r	.
!	!	!	!	!	!	!	!LO:LB:g=original	!
=13	=13	=13	=13	=13	=13	=13	=13	=13
4A\	O-	1.ryy	2d\	O-	2f#X\	O-	4cc\	o-
4G\	.	.	.	.	.	.	4b-\	.
4F#X\	-san-	.	2d\	-san-	2f#\	-san-	4a\	-san-
!LO:SIC:v:s=4E	!	!	!	!	!	!	!	!
4E-\	.	.	.	.	.	.	4g\	.
4D\	-na	.	2d\	-na	2f#\	-na	4f#X\	-na
4F#\	.	.	.	.	.	.	4a\	.
=14	=14	=14	=14	=14	=14	=14	=14	=14
2G\	in	1.ryy	1d	in	2g\	in	2b-\	in
!	!	!	!	!	!LO:SIC:v:s=2f#	!	!	!
2D/	.	.	.	.	2f\	.	2a\	.
2BB-/	ex-	.	2d\	ex-	2g\	ex-	2b-\	ex-
!	!	!	!LO:LB:g=original	!	!	!	!	!
=15	=15	=15	=15	=15	=15	=15	=15	=15
2C/	-cel-	1.ryy	2e-\	-cel-	2a\	-cel-	2cc\	-cel-
1D	.	.	1d	.	2g\	.	2b-\	.
!	!	!	!	!	!LO:SIC:v:s=2f#	!	!	!
.	.	.	.	.	2f\	.	2a\	.
!	!	!	!	!	!LO:LB:g=original	!	!	!
=16	=16	=16	=16	=16	=16	=16	=16	=16
1GG	-sis	1.ryy	1d	-sis	1g	-sis	1b-	-sis
2r	.	.	2r	.	2r	.	2r	.
=17	=17	=17	=17	=17	=17	=17	=17	=17
4A\	O-	1.ryy	2d\	O-	2f#X\	O-	4cc\	O-
4G\	.	.	.	.	.	.	4b-\	.
4F#X\	-san-	.	2d\	-san-	2f#\	-san-	4a\	-san-
!LO:SIC:v:s=4E	!	!	!	!	!	!	!	!
4E-\	.	.	.	.	.	.	4g\	.
!	!	!	!	!	!	!	!LO:SIC:v:s=4f#	!
4D\	-na	.	2d\	-na	2f#\	-na	4f\	-na
4F#\	.	.	.	.	.	.	4a\	.
!LO:LB:g=original	!	!	!	!	!	!	!	!
=18	=18	=18	=18	=18	=18	=18	=18	=18
2G\	in	1.ryy	1d	in	2g\	in	2b-\	in
!	!	!	!	!	!LO:SIC:v:s=2f#	!	!	!
2D\	.	.	.	.	2f\	.	2a\	.
2BB-/	ex-	.	2d\	ex-	2g\	ex-	2b-\	ex-
=19	=19	=19	=19	=19	=19	=19	=19	=19
2C/	-cel-	1.ryy	2e-\	-cel-	2a\	-cel-	2cc\	-cel-
1D	.	.	1d	.	2g\	.	2b-\	.
!	!	!	!	!	!LO:SIC:v:s=2f#	!	!	!
.	.	.	.	.	2f\	.	2a\	.
=20	=20	=20	=20	=20	=20	=20	=20	=20
1.GG	-sis	1.ryy	1d	-sis	1g	-sis	1.b-	-sis
.	.	.	2r	.	2r	.	.	.
==	==	==	==	==	==	==	==	==
*-	*-	*-	*-	*-	*-	*-	*-	*-
!!!system-decoration: [(s1,s2,s3,s4,s5)]
!!!ENC: Andrzej Borzym
!!!END: 2024-03-06
!!!EED: Andrzej Borzym
!!!END: 2025-02-17
